X:1
T:Plaisir d'Amour
T:Jean Paul Egide Martini (1741-1816)
T:Jean Pierre Claris de Florian (1755-1794)
%%score 1 2 3
L:1/8
M:3/4
K:F
V:1 treble-8 nm="Tenor" snm="T."
V:2 bass nm="Baritone" snm="Bar."
V:3 bass nm="Bass" snm="B."
V:1
!mp! C2 |:!<(! F6!<)! | G6 | A6- | A4 A2 | B4 B2 |!>(! A2 G2 A2!>)! | (G6 | %8
w: Plai|sir|d'a|mour-|* ne|du re|qu'un- * mo|ment,-|
 !breath!G4)!<(! C2!<)! | D6 | E6 | F2 G2 A2 | D2 G2 B2 | A6 |!>(! G6!>)! | (F6 | F4) F2 |!p! c6 | %18
w: * cha|grin|d'a|mour du re|tou te la|vi|i|e|* J'ai|tout|
 d6 | c2 d2 e2 | f2 e2 d2 | c6 | B6 | (A6 | A4) z2 |!mp! =B6 | c4 ^c2 | d4 e2 | f2 e2 d2 | c6 | %30
w: quit|té pour l'in|gra tte Syl|vi|i|e||El|le me|quitte et|pren end un|autre|
 =B6 | (c6 | c4) C2!D.C.! :|[K:Ab]!p! c6 | c4 c2 | c6 | c4 c2 | c6 | =d4 d2 | (=e6 | %40
w: a|mant,|* Plai-|Tant|que cette|eau|cou le|ra|dou ce|ment,|
 !breath!=e4)!<(! G2!<)! | A4 A2 | B4 B2 | c2 B2 c2 | d2 e2 f2 |!>(! c6!>)! | (B6 | B4) z2 | %48
w: * vers|le ruis|seau qui|bo o rde|la a prai|ri|e||
!mp! E6 | E6 | (c6 | c6) | =E2 E2 E2 | =E4 E2 | c6 | c4 z2 |!<(! G6!<)! | G2 F2 =E2 | (F6 | %59
w: Je|t'aime|rai||me ré pe|tai Syl|vi|e|L'eau|cou oule en|core|
 F4) c2 | B4 B2 | A2 F2!>(! A2!>)! | A6 | !breath!G4 G2!D.C.! |] %64
w: * Elle|a chan|gé é pour|tan|ant, Plai|
V:2
!mp! C,2 |:!<(! F,6!<)! | F,6 | F,6- | F,4 F,2 | F,6 |!>(! F,4 F,2!>)! | (F,6 | %8
w: Plai|sir|d'a|mou|our ne|dure|qu'un mo|ment,|
 !breath!E,4)!<(! C,2!<)! | G,6 | C,6 | C,2 C,2 F,2 | F,2 D,2 E,2 | F,6 |!>(! E,6!>)! | (C,6 | %16
w: * cha|grin|d'a|mour du re|tou te la|vi|i|e|
 C,4) F,2 |!p! A,6 | B,6 | A,2 B,2 C2 | D2 C2 B,2 | A,6 | G,6 | (C,6 | C,4) z2 |!mp! F,6 | %26
w: * J'ai|tout|quit|té pour l'in|gra tte Syl|vi|i|e||El|
 E,4 E,2 | F,4 F,2 | D,4 D,2 | E,6 | D,6 | (E,6 | E,4) C,2 :|[K:Ab]!p! A,6 | A,4 A,2 | G,6 | %36
w: le me|quitte et|prend un|autre|a|mant,|* Plai|Tant|que cette|eau|
 G,4 G,2 | A,6 | A,4 A,2 | (G,6 | !breath!G,4)!<(! =E,2!<)! | C,4 C,2 | E,4 E,2 | E,4 E,2 | %44
w: cou le|ra|dou ce|ment,|* vers|le ruis|seau qui|bo rde|
 F,4 F,2 |!>(! A,6!>)! | (G,6 | G,4) z2 |!mp! G,6 | G,6 | (A,6 | A,6) | G,2 G,2 G,2 | G,4 G,2 | %54
w: la prai|ri|e||Je|t'aime|rai||me ré pe|tai Syl|
 A,6 | E,4 z2 |!<(! =E,6!<)! | =E,2 =D,2 C,2 | (C,6 | A,4) A,2 | F,4 F,2 | =D,4!>(! D,2!>)! | F,6 | %63
w: vi|e|L'eau|cou oule en|core,|* Elle|a chan|gé pour|tan|
 !breath!=E,4 C,2 |] %64
w: ant, Plai|
V:3
!mp! C,2 |:!<(! F,6!<)! | E,6 | _E,6- | E,4 C,2 | D,6 |!>(! C,4 C,2!>)! | (C,6 | %8
w: Plai|sir|d'a|mour|* ne|dure|qu'un mo|ment,|
 !breath!C,4)!<(! C,2!<)! | =B,,6 | B,,6 | A,,2 B,,2 C,2 | B,,2 B,,2 D,2 | C,6 |!>(! C,6!>)! | %15
w: * cha|grin|d'a|mour du re|tou te la|vi|i|
 (F,,6 | F,,4) F,2 |!p! F,6 | F,6 | F,2 F,2 F,2 | B,,2 B,,2 B,,2 | F,6 | (F,4 E,2) | (F,,6 | %24
w: e|* J'ai|tout|quit|té pour l'in|gra tte Syl|vi|i i|e|
 F,,4) z2 |!mp! G,,6 | G,,4 G,,2 | A,,4 A,,2 | A,,4 A,,2 | G,,6 | G,,6 | (C,6 | B,,4) C,2 :| %33
w: |El|le me|quitte et|prend un|autre|a|mant,|* Plai|
[K:Ab]!p! F,,6 | F,,4 F,,2 | =E,,6 | =E,,4 E,,2 | F,,6 | B,,4 =B,,2 | (C,6 | %40
w: Tant|que cette|eau|cou le|ra|dou ce|ment,|
 !breath!C,4)!<(! C,2!<)! | F,,4 F,,2 | G,,4 G,,2 | A,,4 A,,2 | B,,4 B,,2 |!>(! E,6!>)! | (E,6 | %47
w: * vers|le ruis|seau qui|bo rde|la prai|ri|e|
 E,4) z2 |!mp! B,,6 | B,,2 C,2 D,2 | (E,6 | E,6) | B,,2 B,,2 B,,2 | B,,2 C,2 D,2 | E,4 C,2 | %55
w: |Je|t'ai ai me|rai||me ré pe|tai ait Syl|vi i|
 A,,4 z2 |!<(! C,6!<)! | C,2 C,2 B,,2 | (A,,6 | A,,4) F,,2 | B,,4 C,2 | =B,,4!>(! B,,2!>)! | C,6 | %63
w: e|L'eau|cou oule en|core|* Elle|a chan|gé pour|tan|
 !breath!C,4 C,2 |] %64
w: ant, Plai|

